X: 21
T:Pearl O'Shaughnessey's Barndance #1
R:Barndance
S:Smoky Chimney CD
M:4/4
L:1/8
K:G
|:Bc|d2d2 dded|B2B2 BAGB|d2c2 cAFA|e2d2 dcBc|
d2d2 dded|B2B2 BAGB|d2c2 cAFG|A2G2G2 :|
|:GA|B2G2GBdB|c2A2A2cB|A2F2F2D2|GFGB eddc|
B2G2GBdB|c2A2A2cB|AGFE DEFA|G2B2G2:|
|:Bc|d2edB2g2|fegec2g2|f2edf2ed|B2AGB2Bc|
d2edB2g2|fegec2g2|f2ed ^cdef|g2b2g2:|
|:Bc|d2b2b2ag|a2e2e3g|f2edf2ed|B2AGB2Bc|
d2b2b2ag|a2e2e3g|f2ed ^cdef|g2b2g2:|
